X:1
T:Pristina, 97.97 D
T:Pristina, 97.97 D
T:Elbert B. Fowler, 1912
T:Public Domain Courtesy of the Cyber Hymnal™
C:Elbert B. Fowler, 1912
Z:Public Domain
Z:Courtesy of the Cyber Hymnal™
%%score 1 ( 2 3 )
L:1/8
Q:1/4=103
M:4/4
K:C
V:1 treble 
V:2 bass 
V:3 bass 
V:1
 [EG]2 [FA]>[EG] [CE]3 [EG] | [Gc]2 [Gd]>[Gd] [Ge]3 [Gc] | [FA]2 [FA]>[FA] [^Fd]2 [Fc]2 | %3
 [GB]6 z2 | [EG]2 [FA]>[EG] [CE]3 [EG] | [Gc]2 [Gd]>[_Be] [Af]3 [Ad] | [Gc]2 [FB][Ec] [Ge]2 [Fd]2 | %7
 [Ec]6 z2 | [Ge]2 [Ge]>[Ge] [^Ge]3 [Gd] | [Ac]2 [^Fd]>[Fc] [GB]3 [=FA] | %10
 [EG]2 [Gc]>[Gc] [^Fe]2 [Fd]2 | [Fd]6 z2 | [Ge]2 [Ge]>[Ge] [^Ge]3 [Gd] | %13
 [Ac]2 [Ad]>[Ae] !fermata![Af]3 [Ad] | [Gc]2 [GB][Gc] [Ge]2 [Fd]2 | [Ec]6 z2 |] %16
V:2
 [C,C]2 [C,C]>[C,C] [C,G,]3 [C,C] | [E,C]2 [G,B,]>[G,B,] C3 [E,C] | %2
 [F,C]2 [F,C]>[F,C] [D,D]2 [D,D]2 | [G,D]6 z2 | [C,C]2 [C,C]>[C,C] [C,G,]3 [C,C] | %5
 [E,C]2 [G,B,]>C [F,C]3 [F,F] | [G,E]2 [G,D][G,C] [G,,G,B,]2 [G,,G,B,]2 | [C,C]6 z2 | %8
 [C,C]2 [C,C]>[C,C] [E,B,]3 [E,C] | [A,E]2 [D,D]>[D,D] [G,D]3 [G,B,] | %10
 [C,C]2 [E,C]>[E,C] [D,C]2 [D,C]2 | [G,B,]6 z2 | [C,C]2 [C,C]>[C,C] [E,B,]3 [E,E] | %13
 [A,E]2 [D,D]>[=C,^C] !fermata![D,D]3 [F,D] | [G,E]2 [G,D][G,E] [G,,G,C]2 [G,,G,B,]2 | [C,C]6 z2 |] %16
V:3
 x8 | x4 C3 x | x8 | x8 | x8 | x7/2 C/ x4 | x8 | x8 | x8 | x8 | x8 | x8 | x8 | x8 | x8 | x8 |] %16

